X:187
T:Handel’s Clarinet. HSJJ.189
M:4/4
L:1/8
Q:1/4=100
S:HSJ Jackson,Wyresdale,Lancs.1823
R:.Air
O:England
A:Lancashire
H:1823
Z:vmp.Chris Partington
K:C
g2″_as written”e/f/g/a/d2cA|cdc”_sic” ded e2 (f/g/)|\
aaag/f/ gggf/e/|fffe/d/ eeed|!
c/d/e/f/ gf/e/|azfz|gzGzc4:|\
|:g|eGce d/c/d/e/ dg|egced2g2|!
(g8|g6)g2|(ag)(gf) (fe)(ef)|(gf)(fe) (ed)~d2|\
c/d/e/f/ gf/e/azf|gzGzc4:|

